public/wpadmin.svg

<svg width="632" height="128" viewBox="0 0 632 128" fill="none" xmlns="http://www.w3.org/2000/svg">
<path d="M29.184 98.5601L4.29153e-06 24.3201H20.736L36.736 62.8481L53.504 24.3201H72.448L90.368 63.3601L105.216 24.3201H125.952L98.048 98.5601H83.2L63.104 54.2721L43.904 98.5601H29.184ZM137.182 128V24.3201H193.886C197.299 24.3201 200.414 25.1734 203.23 26.8801C206.046 28.5867 208.265 30.8481 209.886 33.6641C211.593 36.4801 212.446 39.5521 212.446 42.8801V80.0001C212.446 83.3281 211.593 86.4001 209.886 89.2161C208.265 92.0321 206.046 94.2934 203.23 96.0001C200.414 97.7067 197.299 98.5601 193.886 98.5601H156.766V128H137.182ZM156.766 78.9761H192.862V43.9041H156.766V78.9761ZM240.486 98.5601C237.073 98.5601 233.958 97.7067 231.142 96.0001C228.326 94.2934 226.065 92.0321 224.358 89.2161C222.737 86.4001 221.926 83.3281 221.926 80.0001V51.5841H277.606V43.9041H221.926V24.3201H278.63C282.043 24.3201 285.158 25.1734 287.974 26.8801C290.79 28.5867 293.009 30.8481 294.63 33.6641C296.337 36.4801 297.19 39.5521 297.19 42.8801V98.5601H240.486ZM241.51 78.9761H277.606V68.7361H241.51V78.9761ZM325.649 98.5601C322.236 98.5601 319.121 97.7067 316.305 96.0001C313.489 94.2934 311.228 92.0321 309.521 89.2161C307.9 86.4001 307.089 83.3281 307.089 80.0001V42.8801C307.089 39.5521 307.9 36.4801 309.521 33.6641C311.228 30.8481 313.489 28.5867 316.305 26.8801C319.121 25.1734 322.236 24.3201 325.649 24.3201H362.897V5.34058e-05H382.481V98.5601H325.649ZM326.801 78.9761H362.897V43.9041H326.801V78.9761ZM396.432 98.5601V24.3201H485.776C489.189 24.3201 492.304 25.1734 495.12 26.8801C497.936 28.5867 500.155 30.8481 501.776 33.6641C503.483 36.4801 504.336 39.5521 504.336 42.8801V98.5601H484.88V43.9041H460.304V98.5601H440.592V43.9041H416.016V98.5601H396.432ZM521.301 98.5601V24.3201H540.885V98.5601H521.301ZM521.301 19.7121V5.34058e-05H540.885V19.7121H521.301ZM555.932 98.5601V24.3201H612.636C616.049 24.3201 619.164 25.1734 621.98 26.8801C624.796 28.5867 627.015 30.8481 628.636 33.6641C630.343 36.4801 631.196 39.5521 631.196 42.8801V98.5601H611.612V43.9041H575.516V98.5601H555.932Z" fill="white"/>
</svg>

<svg xmlns="http://www.w3.org/2000/svg" width="632" height="128" fill="none" viewBox="0 0 632 128"><path fill="#fff" d="M29.184 98.56 0 24.32h20.736l16 38.528L53.504 24.32h18.944l17.92 39.04 14.848-39.04h20.736L98.048 98.56H83.2L63.104 54.272l-19.2 44.288zM137.182 128V24.32h56.704q5.12 0 9.344 2.56t6.656 6.784q2.56 4.224 2.56 9.216V80q0 4.992-2.56 9.216-2.432 4.224-6.656 6.784t-9.344 2.56h-37.12V128zm19.584-49.024h36.096V43.904h-36.096zm83.72 19.584q-5.12 0-9.344-2.56a19.85 19.85 0 0 1-6.784-6.784q-2.432-4.224-2.432-9.216V51.584h55.68v-7.68h-55.68V24.32h56.704q5.12 0 9.344 2.56t6.656 6.784q2.56 4.224 2.56 9.216v55.68zm1.024-19.584h36.096v-10.24H241.51zm84.139 19.584q-5.12 0-9.344-2.56a19.85 19.85 0 0 1-6.784-6.784q-2.432-4.224-2.432-9.216V42.88q0-4.992 2.432-9.216a19.85 19.85 0 0 1 6.784-6.784q4.224-2.56 9.344-2.56h37.248V0h19.584v98.56zm1.152-19.584h36.096V43.904h-36.096zm69.631 19.584V24.32h89.344q5.12 0 9.344 2.56t6.656 6.784q2.56 4.224 2.56 9.216v55.68H484.88V43.904h-24.576V98.56h-19.712V43.904h-24.576V98.56zm124.869 0V24.32h19.584v74.24zm0-78.848V0h19.584v19.712zm34.631 78.848V24.32h56.704q5.12 0 9.344 2.56t6.656 6.784q2.56 4.224 2.56 9.216v55.68h-19.584V43.904h-36.096V98.56z"/></svg>
